!!!SOCIAL_FUNCTION:	songs with hunting dance
!!!PDT:	1956
!!!OTL: No_30_Cypress_Swamp_Hunting_Dance_Song_(e).krn
!!!LANG: Non-Tone
!!!LING_GROUP: Muskogean
!!!REG: Florida
**kern
*staff1
=1-
*clefF4
*k[b-e-a-]
*M3/4
2r
8r
8B-\
=2
12B-\L
12B-\
12A-\J
4G\
12G\L
12E-\
12B-\J
=3||
*M2/4
8B-\L
8A-\J
8G\L
8E-\J
=4
4E-\
4r
=5
4G\
4B-\
=6
4G\
4G\
=7
4E-\
4E-\
=8||
*M3/4
4G\
8G\L
8F\J
8G\L
8E-\J
=9||
*M2/4
4E-\
4r
=10
2E-\
=11
8G\L
8E-\J
4G\
=12
4E-\
4E-\
=13||
*M3/4
4G\
8G\L
8F\J
8G\L
8E-\J
=14||
*M2/4
4E-\
4r
=15||
*M3/4
4E-\
8E-/L
8BB-/J
4E-\
==
*-
